trunk/public/assets/images/icons/green/refresh/info-circle.svg

<svg width="16" height="16" xmlns="http://www.w3.org/2000/svg" viewBox="0 0 16 16" shape-rendering="geometricPrecision" fill="#00962d"><defs><mask id="a"><rect fill="#fff" width="100%" height="100%"/><path d="M17.514 2.67l-.862-.55L16.65-1h-2.866v.558c-1.334-.3-2.758.103-3.723 1.067-1.568 1.57-1.553 4.14.036 5.732.78.777 1.81 1.205 2.9 1.205 1.072 0 2.078-.415 2.832-1.168C16.585 5.64 17 4.63 17 3.557V2.67h.514zm-3.373.888c0 .22-.057.54-.332.813-.443.444-1.23.427-1.69-.034-.475-.475-.49-1.234-.036-1.69.01-.01.02-.02.033-.03v.922h2.026v.02z" fill="#000"/></mask></defs><path d="M13.114 2.537h2.538V0h-.868v1.105c-1.204-.927-2.924-.863-4.016.227-1.187 1.188-1.162 3.12.035 4.317 1.2 1.197 3.13 1.223 4.32.036.584-.584.878-1.357.877-2.128h-.86c0 .558-.207 1.103-.626 1.522-.843.842-2.23.836-3.104-.036-.87-.872-.877-2.26-.035-3.105.73-.728 1.86-.82 2.72-.27h-.982v.867z" fill="#cb1800"/><path d="M8 1C4.134 1 1 4.137 1 8.005 1.004 11.867 4.135 15 8 15c3.867 0 7-3.133 7-6.996C15 4.136 11.868 1 8 1zm0 12.585c-3.083-.006-5.577-2.5-5.583-5.58.006-3.087 2.5-5.582 5.583-5.588 3.084.006 5.578 2.5 5.585 5.587-.007 3.08-2.5 5.575-5.585 5.58zm.127-8.26c.554 0 1-.458 1-1.02 0-.566-.446-1.024-1-1.024-.553 0-1 .46-1 1.025 0 .562.447 1.02 1 1.02zm.987 1.05H6.118v.76H7.1v4.08h-.985v1.014H10.1v-1.016h-.986v-4.84z" mask="url(#a)"/></svg>

<?xml version="1.0"?><!DOCTYPE svg PUBLIC "-//W3C//DTD SVG 1.1//EN" "http://www.w3.org/Graphics/SVG/1.1/DTD/svg11.dtd"><svg width="16px" height="16px" xmlns="http://www.w3.org/2000/svg" viewBox="0 0 16 16" shape-rendering="geometricPrecision" fill="#00962d"><defs><mask id="refresh-path"><rect fill="#fff" width="100%" height="100%"/><path d="M17.514,2.671l-0.862-0.552L16.65-1h-2.866v0.558c-1.334-0.3-2.758,0.103-3.723,1.067 c-1.569,1.569-1.554,4.141,0.035,5.732c0.779,0.777,1.809,1.205,2.901,1.205c1.071,0,2.077-0.415,2.831-1.168 C16.585,5.639,17.001,4.631,17,3.557l0-0.886H17.514z M14.141,3.558c0,0.22-0.058,0.539-0.333,0.813 c-0.443,0.443-1.23,0.426-1.69-0.035c-0.475-0.475-0.49-1.234-0.036-1.689c0.011-0.011,0.021-0.022,0.033-0.031l0,0.922h2.026 V3.558z" fill="#000"/></mask></defs><path display="inline" d="M13.114,2.537h2.538L15.651,0h-0.867v1.105 c-1.204-0.927-2.924-0.863-4.016,0.227C9.581,2.52,9.606,4.451,10.803,5.649c1.201,1.198,3.131,1.224,4.319,0.037 C15.707,5.102,16.001,4.329,16,3.558l-0.859,0.001c-0.001,0.557-0.208,1.102-0.627,1.521c-0.843,0.842-2.231,0.836-3.104-0.036 c-0.871-0.872-0.877-2.26-0.035-3.105c0.729-0.727,1.86-0.818,2.721-0.268h-0.983L13.114,2.537z" fill="#cb1800"/><g mask="url(#refresh-path)"><path d="M8,1.001c-3.866,0-6.999,3.135-6.999,7.003C1.003,11.867,4.134,14.999,8,15.001 c3.867-0.002,7.001-3.134,7.001-6.997C15.001,4.136,11.867,1.001,8,1.001z M8,13.585c-3.083-0.006-5.577-2.5-5.583-5.581 C2.423,4.918,4.917,2.423,8,2.417c3.084,0.006,5.578,2.501,5.585,5.587C13.578,11.085,11.084,13.579,8,13.585z M8.127,5.326 c0.554,0,1-0.459,1-1.021c0-0.566-0.446-1.024-1-1.024c-0.553,0-1.001,0.458-1.001,1.024C7.126,4.867,7.574,5.326,8.127,5.326z M9.114,6.375H6.118v0.761h0.982v4.078H6.115v1.015h3.986v-1.015H9.114V6.375z"/></g></svg>
